X: 616
T:Crosses of Annagh, The
M:4/4
L:1/8
C:Co. Cork whistle player Michael Dwyer
Z:Arbo R Doughty
N:Posted to the woodenflute mailing list December 2002
K:D
DFAB B2 AB| d2 fd edBd| DFAB B2 AB| dfgf edbd|
DFAB B2 AB| d2 fd efge| faaf g2 fe| defd edBd:||
d2 fd eA (3AAA| defg afef| dcdf eB (3BAB| gB (3BAB dBAB|
d2 fd edef| defd edBd| ABdf bafb| afeg fedB ||

